app/assets/images/logo.svg

<svg width="247" height="34" fill="none" xmlns="http://www.w3.org/2000/svg"><path d="M18 33h16v-2.586h-7.277A15.924 15.924 0 0 1 18 33ZM18 27.182a3.236 3.236 0 0 1-3.232-3.232A3.236 3.236 0 0 1 18 20.716v-7.434a3.236 3.236 0 0 1-3.232-3.232A3.236 3.236 0 0 1 18 6.817V1C9.163 1 2 8.163 2 17s7.163 16 16 16v-5.818Zm-6.95-6.95A3.236 3.236 0 0 1 7.818 17a3.236 3.236 0 0 1 3.232-3.232A3.236 3.236 0 0 1 14.284 17a3.236 3.236 0 0 1-3.232 3.232Z" fill="#E30B13"/><path d="M34 17c0-8.837-7.163-16-16-16v5.818a3.236 3.236 0 0 1 3.232 3.232A3.236 3.236 0 0 1 18 13.284v7.434a3.236 3.236 0 0 1 3.232 3.233A3.236 3.236 0 0 1 18 27.181V33c3.218 0 6.214-.95 8.723-2.586C31.103 27.56 34 22.618 34 17Zm-9.05-3.232A3.236 3.236 0 0 1 28.181 17a3.236 3.236 0 0 1-3.232 3.232A3.236 3.236 0 0 1 21.716 17a3.236 3.236 0 0 1 3.233-3.232Z" fill="#CE080F"/><path d="M56.784 9.6h-4.026v5.588h-4.752V9.6H43.98V25h4.026v-6.182h4.752V25h4.026V9.6Zm6.198 3.52V25h3.894V13.12h3.762V9.6h-11.44v3.52h3.784Zm17.545 3.124L74.5 9.556h-1.452V25h4.026v-6.864l3.256 3.432h.44l3.278-3.432V25h4.026V9.556h-1.408l-6.138 6.688ZM95.935 9.6h-3.96V25h9.548v-3.542h-5.588V9.6Zm12.225 0h-3.96V25h9.548v-3.542h-5.588V9.6Zm17.9 0h-9.614V25h9.812v-3.498h-5.896v-2.706h5.236v-3.498h-5.236V13.12h5.698V9.6Zm6.306 10.692h-3.806c-.088 6.776 12.452 6.6 12.452.132 0-3.85-2.992-4.246-6.05-4.576-1.386-.154-2.53-.396-2.442-1.562.132-1.826 4.268-2.002 4.268.044h3.74c.088-6.644-11.88-6.644-11.748 0 .044 3.344 2.244 4.488 5.588 4.73 1.54.088 2.816.264 2.816 1.342 0 1.804-4.818 1.848-4.818-.11Zm14.265 0h-3.806c-.088 6.776 12.452 6.6 12.452.132 0-3.85-2.992-4.246-6.05-4.576-1.386-.154-2.53-.396-2.442-1.562.132-1.826 4.268-2.002 4.268.044h3.74c.088-6.644-11.88-6.644-11.748 0 .044 3.344 2.244 4.488 5.588 4.73 1.54.088 2.816.264 2.816 1.342 0 1.804-4.818 1.848-4.818-.11Zm26.388-2.97c0-10.648-15.796-10.648-15.796 0 0 10.67 15.796 10.67 15.796 0Zm-11.748 0c0-5.544 7.722-5.544 7.722 0 0 5.588-7.722 5.588-7.722 0Zm26.544 7.7h1.408V9.6h-4.026v7.546l-7.788-7.612h-1.43V25h4.07v-7.568l7.766 7.59Zm8.059-4.73h-3.806c-.088 6.776 12.452 6.6 12.452.132 0-3.85-2.992-4.246-6.05-4.576-1.386-.154-2.53-.396-2.442-1.562.132-1.826 4.268-2.002 4.268.044h3.74c.087-6.644-11.88-6.644-11.748 0 .044 3.344 2.244 4.488 5.588 4.73 1.54.088 2.816.264 2.816 1.342 0 1.804-4.818 1.848-4.818-.11Zm27.777-.748c3.894-2.64 2.794-9.922-3.256-9.944h-6.754V25h3.938v-4.532h2.046l2.64 4.532h4.4v-.572l-3.014-4.884Zm-3.256-2.618h-2.816V13.12c.924 0 1.892-.022 2.816 0 2.244.022 2.134 3.806 0 3.806Zm14.613 4.752c-1.144 0-2.354-.616-2.354-1.87V9.6h-3.762v10.274c0 3.388 2.97 5.346 6.116 5.346 3.168 0 6.138-1.958 6.138-5.346V9.6h-3.806v10.208c0 1.254-1.188 1.87-2.332 1.87Z" fill="#fff"/><path d="M208.533 25.132c1.188 0 2.156-.792 2.156-2.002 0-1.232-.968-2.046-2.156-2.046-1.232 0-2.2.814-2.2 2.046 0 1.21.968 2.002 2.2 2.002Z" fill="#E30B13"/></svg>

<?xml version="1.0"?>
<svg width="247" height="34" xmlns="http://www.w3.org/2000/svg" xmlns:svg="http://www.w3.org/2000/svg">
 <g class="layer">
  <title>Layer 1</title>
  <path d="m18,33l16,0l0,-2.59l-7.28,0a15.92,15.92 0 0 1 -8.72,2.59zm0,-5.82a3.24,3.24 0 0 1 -3.23,-3.23a3.24,3.24 0 0 1 3.23,-3.23l0,-7.44a3.24,3.24 0 0 1 -3.23,-3.23a3.24,3.24 0 0 1 3.23,-3.23l0,-5.82c-8.84,0 -16,7.16 -16,16s7.16,16 16,16l0,-5.82zm-6.95,-6.95a3.24,3.24 0 0 1 -3.23,-3.23a3.24,3.24 0 0 1 3.23,-3.23a3.24,3.24 0 0 1 3.23,3.23a3.24,3.24 0 0 1 -3.23,3.23z" fill="#E30B13" id="svg_1"/>
  <path d="m34,17c0,-8.84 -7.16,-16 -16,-16l0,5.82a3.24,3.24 0 0 1 3.23,3.23a3.24,3.24 0 0 1 -3.23,3.23l0,7.44a3.24,3.24 0 0 1 3.23,3.23a3.24,3.24 0 0 1 -3.23,3.23l0,5.82c3.22,0 6.21,-0.95 8.72,-2.59c4.38,-2.85 7.28,-7.79 7.28,-13.41zm-9.05,-3.23a3.24,3.24 0 0 1 3.23,3.23a3.24,3.24 0 0 1 -3.23,3.23a3.24,3.24 0 0 1 -3.23,-3.23a3.24,3.24 0 0 1 3.23,-3.23z" fill="#CE080F" id="svg_2"/>
  <text fill="#ffffff" font-family="Helvetica" font-size="2" font-weight="bold" id="svg_5" stroke-width="0" text-anchor="middle" transform="matrix(18.99 0 0 14.2715 -4177.97 1385.37)" x="226.83" xml:space="preserve" y="-95.28">MovieFlix</text>
  <text fill="#bf0000" font-family="Helvetica" font-size="2" id="svg_3" stroke="#000000" stroke-width="0" text-anchor="middle" transform="matrix(25.2286 0 0 16.4641 4305.4 1870.2)" x="-161.68" xml:space="preserve" y="-111.97">!</text>
 </g>
</svg>
